public/assets/images/icons/black/visibility-invisible/smiley.svg

<svg width="16" height="16" xmlns="http://www.w3.org/2000/svg" viewBox="0 0 16 16" shape-rendering="geometricPrecision"><defs><mask id="a"><rect fill="#fff" width="100%" height="100%"/><path d="M12.997.858a4.809 4.809 0 0 0-4.253 2.563 4.81 4.81 0 0 0 8.506 0A4.812 4.812 0 0 0 12.997.858z"/></mask></defs><path d="M12.997 1.611a3.394 3.394 0 0 0-3.003 1.81 3.397 3.397 0 0 0 6.006 0 3.398 3.398 0 0 0-3.003-1.81zm-.001 3.396a1.587 1.587 0 1 1 0-3.174 1.587 1.587 0 0 1 0 3.174z" fill="#cb1800"/><path mask="url(#a)" d="M8 1.051a6.949 6.949 0 1 0 0 13.898A6.949 6.949 0 0 0 8 1.051zm1.973 3.456c.731 0 1.326.756 1.326 1.682 0 .927-.595 1.683-1.326 1.683-.73 0-1.325-.756-1.325-1.683-.001-.926.594-1.682 1.325-1.682zm-3.667-.042c.731 0 1.326.755 1.326 1.681 0 .928-.595 1.683-1.326 1.683-.73 0-1.325-.755-1.325-1.683-.001-.926.594-1.681 1.325-1.681zm1.852 9.081c-4.853 0-5.388-5.018-5.388-5.018s1.111 3.248 5.347 3.248c4.154 0 5.182-3.085 5.182-3.085s-.74 4.855-5.141 4.855z"/></svg>

<?xml version="1.0"?><!DOCTYPE svg PUBLIC "-//W3C//DTD SVG 1.1//EN" "http://www.w3.org/Graphics/SVG/1.1/DTD/svg11.dtd"><svg width="16px" height="16px" xmlns="http://www.w3.org/2000/svg" viewBox="0 0 16 16" shape-rendering="geometricPrecision" fill="#000"><defs><mask id="visibility-invisible-path"><rect fill="#fff" width="100%" height="100%"/><path d="M12.997,0.858c-1.845,0-3.446,1.039-4.253,2.563c0.808,1.523,2.408,2.562,4.253,2.562 c1.844,0,3.444-1.039,4.253-2.562C16.441,1.897,14.841,0.858,12.997,0.858z" fill="#000"/></mask></defs><g id="visibility-invisible" display="inline" fill="#cb1800"><g><g><path d="M12.997,1.611c-1.303,0-2.433,0.733-3.003,1.81c0.57,1.075,1.7,1.809,3.003,1.809c1.302,0,2.432-0.733,3.003-1.809 C15.429,2.345,14.299,1.611,12.997,1.611z M12.996,5.007c-0.876,0-1.587-0.71-1.587-1.586c0-0.877,0.711-1.588,1.587-1.588 c0.877,0,1.588,0.711,1.588,1.588C14.584,4.297,13.873,5.007,12.996,5.007z"/></g></g></g><path mask="url(#visibility-invisible-path)" d="M8,1.051c-3.838,0-6.949,3.111-6.949,6.95c0,3.837,3.11,6.948,6.949,6.948 c3.837,0,6.949-3.111,6.949-6.948C14.949,4.162,11.837,1.051,8,1.051z M9.973,4.507c0.731,0,1.326,0.756,1.326,1.682 c0,0.927-0.595,1.683-1.326,1.683c-0.73,0-1.325-0.756-1.325-1.683C8.647,5.263,9.242,4.507,9.973,4.507z M6.306,4.465 c0.731,0,1.326,0.755,1.326,1.681c0,0.928-0.595,1.683-1.326,1.683c-0.73,0-1.325-0.755-1.325-1.683 C4.98,5.22,5.575,4.465,6.306,4.465z M8.158,13.546c-4.853,0-5.388-5.018-5.388-5.018s1.111,3.248,5.347,3.248 c4.154,0,5.182-3.085,5.182-3.085S12.559,13.546,8.158,13.546z"/></svg>
